X:161
T:Stompin' At The Savoy
C:
N:TablEdited by Mike Perry
L:1/8
Q:1/4=250
M:4/4
K:D
 z4 =f/^f/f/f/ f/f/a | a/a/a/a/ a/a/a/a/ a/a/a/a/ a/a/a/a/ | a/a/a/a/ a2 =f/^f/f/f/ f/f/f | 
A/A/A/A/ A/A/A/A/ A/A/A/A/ A/A/A/A/ | A/A/A/A/ A/A3/2 =f/^f/f/f/ f/f3/2 | a/a/a/a/ a/a/a/a/ a/a/a/a/ a/a/a/a/ | 
a/a/a/a/ a/a3/2 =f/^f/f/f/ f/f3/2 | d/d/d/d/ d/d/d/d/ d/d/d/d/ d/d/d/d/ | d/d/d/d/ d/d3/2 =f/^f/f/f/ f/f3/2 | 
a/a/a/a/ a/a/a/a/ a/a/a/a/ a/a/a/a/ | a/a/a/a/ a/a3/2 =f/^f/f/f/ f/f3/2 | A/A/A/A/ A/A/A/A/ A/A/A/A/ A/A/A/A/ | 
A/A/A/A/ A/A3/2 =f/^f/f/f/ f/f3/2 | a/a/a/a/ a/a/a/a/ a/a/a/a/ a/a/a/a/ | a/a/a/a/ a2 =f/^f/f/f/ f/f3/2 | 
d/d/d/d/ d/d/d/d/ d/d/d/d/ d/d/d/d/ | d/d/d/d/ d/d/d/d/ d/d3/2 {d}c2 | a2 g2 ^ag =a_b | 
(3a^a=a gg2g2g | ag ag =c'g ag | (3a^a=a gg2e =f^f | g=f2^g2f =g^g | (3g^g=g =ff2f2f | 
g^a ga2g2=f | fa2=f ^f/f/f/f/ f/f3/2 | a/a/a/a/ a/a/a/a/ a/a/a/a/ a/a/a/a/ | a/a/a/a/ a2 =f/^f/f/f/ f/f3/2 | 
A/A/A/A/ A/A/A/A/ A/A/A/A/ A/A/A/A/ | A/A/A/A/ A/A3/2 =f/^f/f/f/ f/f3/2 | a/a/a/a/ a/a/a/a/ a/a/a/a/ a/a/a/a/ | 
a/a/a/a/ a2 =f/^f/f/f/ f/f3/2 | d/d/d/d/ d/d/d/d/ d/d/d/d/ d/d/d/d/ | d8 | zc' c'c' c'c' c'c' | 
{=c'}^c'c' c'c' {=c'}^c'c' c'c' | c'=c' c'b b^a a=a | ab ae =fA bD | b2 {d}^d2 {e}=f2 =d2 | 
b{=f}^f2{=f}^f2d B2 | d=f ^fa =c'd' c'2 | d'=c'2e =fa bf | fd BA dc ed | fe gf a^g ba | 
fd BA fd g=f | fd BF A^A B=c | d=c ed fe gf | ag fg af d=f | fg fd Ad A2 | cd =cA3 ge | 
f2 g2 a3g | f2 g2 dB AG | B=c GE =C2 C2 | =CC CC CC =fe | g=f ef =cA Gf | A2 A3A GE | 
^G2 G3=F ED | E2 E3D B,2 | z8 | z8 | z8 | z8 | z8 | z8 | z4 GF G2 | ^G2 A2 ^A2 B2 | 
=c4 cB c2 | c2 d2 ^d2 e2 | =f6 fe | f2 g2 ^g2 a2 | [^a4d4=F4^A,4] [e4^G4B,4] | 
[^d4G4^A,4] B/=c/c/c/ c/c3/2 | ^d/d/d/d/ d/d/d/d/ d/d/d/d/ d/d/d/d/ | ^d/d/d/d/ d/d3/2 B/=c/c/c/ c/c3/2 | 
^D/D/D/D/ D/D/D/D/ D/D/D/D/ D/D/D/D/ | ^D/D/D/D/ D/D3/2 B/=c/c/c/ c/c3/2 | ^d/d/d/d/ d/d/d/d/ d/d/d/d/ d/d/d/d/ | 
^d/d/d/d/ d2 B/=c/c/c/ c/c3/2 | ^G/G/G/G/ G/G/G/G/ G/G/G/G/ G/G/G/G/ | ^G/G/G/G/ G/G/G/G/ G/G7/2 | 


